icons/svg/seamark/buoy_yellowblack_pillar.svg

<?xml version="1.0" encoding="UTF-8" standalone="no"?>
<svg
   xmlns:dc="http://purl.org/dc/elements/1.1/"
   xmlns:cc="http://creativecommons.org/ns#"
   xmlns:rdf="http://www.w3.org/1999/02/22-rdf-syntax-ns#"
   xmlns:svg="http://www.w3.org/2000/svg"
   xmlns="http://www.w3.org/2000/svg"
   xmlns:sodipodi="http://sodipodi.sourceforge.net/DTD/sodipodi-0.dtd"
   xmlns:inkscape="http://www.inkscape.org/namespaces/inkscape"
   width="580"
   height="580"
   id="svg2"
   version="1.1"
   inkscape:version="0.48.4 r9939"
   sodipodi:docname="buoy_yellowblack_pillar.svg">
  <defs
     id="defs13">
    <inkscape:path-effect
       effect="gears"
       id="path-effect3774"
       is_visible="true"
       teeth="6"
       phi="-1.2" />
    <inkscape:path-effect
       effect="bend_path"
       id="path-effect3772"
       is_visible="false"
       bendpath="m 95.790098,316.51174 c 144.429032,-206.42506 223.313032,-11.7428 339.548092,0"
       prop_scale="1.19"
       scale_y_rel="false"
       vertical="false"
       bendpath-nodetypes="cc" />
  </defs>
  <sodipodi:namedview
     pagecolor="#ffffff"
     bordercolor="#666666"
     borderopacity="1"
     objecttolerance="10"
     gridtolerance="10"
     guidetolerance="10"
     inkscape:pageopacity="0"
     inkscape:pageshadow="2"
     inkscape:window-width="1920"
     inkscape:window-height="1004"
     id="namedview11"
     showgrid="false"
     inkscape:zoom="0.8137931"
     inkscape:cx="466.59399"
     inkscape:cy="245.89399"
     inkscape:window-x="1680"
     inkscape:window-y="0"
     inkscape:window-maximized="1"
     inkscape:current-layer="svg2" />
  <metadata
     id="metadata2975">image/svg+xmlen<rdf:RDF>
  <cc:Work
     rdf:about="">
    <dc:format>image/svg+xml</dc:format>
    <dc:type
       rdf:resource="http://purl.org/dc/dcmitype/StillImage" />
    <dc:title />
  </cc:Work>
</rdf:RDF>
</metadata>
  <path
     sodipodi:type="inkscape:offset"
     inkscape:radius="19.899572"
     inkscape:original="M 315.0625 202.75 L 272.5 308.8125 L 254.5 354.375 L 238.96875 393.5625 L 233.65625 400.46875 L 230.75 404.1875 L 216.90625 422.15625 L 217 422.1875 L 154.1875 504 L 99.90625 504 L 99.90625 529 L 241.125 529 C 241.1602 529.11645 241.2138 529.2277 241.25 529.34375 C 241.67902 530.72058 242.19197 532.05868 242.75 533.375 C 243.02743 534.02943 243.31709 534.67444 243.625 535.3125 C 243.93853 535.96221 244.24959 536.58699 244.59375 537.21875 C 246.28603 540.32521 248.35661 543.21065 250.71875 545.8125 C 251.1976 546.33994 251.68402 546.83995 252.1875 547.34375 C 260.14809 555.3095 271.09318 560.28125 283.15625 560.28125 C 292.20704 560.28125 300.6444 557.47453 307.65625 552.71875 C 309.99492 551.13255 312.16535 549.33785 314.15625 547.34375 C 314.65916 546.84003 315.1467 546.33982 315.625 545.8125 C 316.09437 545.29502 316.55526 544.75803 317 544.21875 C 317.44755 543.67606 317.89082 543.12633 318.3125 542.5625 C 319.54274 540.91752 320.66193 539.18424 321.65625 537.375 C 321.68545 537.3219 321.7211 537.27194 321.75 537.21875 C 321.7611 537.19845 321.77025 537.17655 321.78125 537.15625 C 321.79235 537.13585 321.8015 537.11425 321.8125 537.09375 C 322.12332 536.5196 322.43316 535.93268 322.71875 535.34375 C 322.72275 535.33475 322.71475 535.321 322.71875 535.3125 C 323.02896 534.66984 323.31446 534.03427 323.59375 533.375 C 323.87297 532.71589 324.15889 532.04975 324.40625 531.375 C 324.61937 530.79653 324.81097 530.21437 325 529.625 C 325.0302 529.5305 325.06425 529.43856 325.09375 529.34375 C 325.12945 529.2299 325.1528 529.11424 325.1875 529 L 455.28125 529 L 455.28125 504 L 386 504 L 373.65625 445.5 L 368.90625 422.375 L 375 324.65625 L 380.96875 218.34375 L 380.9375 218.34375 L 380.9375 218.3125 L 378.1875 217.6875 L 315.0625 202.75 z "
     style="opacity:0.42608696;color:#000000;fill:#8d8d8d;fill-opacity:1;fill-rule:nonzero;stroke:#a35151;stroke-width:0;stroke-linecap:round;stroke-linejoin:miter;stroke-miterlimit:4;stroke-opacity:1;stroke-dasharray:none;stroke-dashoffset:0;marker:none;visibility:visible;display:inline;overflow:visible;enable-background:accumulate"
     id="path3038"
     d="m 315.71875,182.875 a 19.901562,19.901562 0 0 0 -19.125,12.46875 l -42.5625,106.0625 A 19.901562,19.901562 0 0 0 254,301.5 l -18,45.53125 0,0.0312 -14.5,36.59375 -3.53125,4.5625 -0.0937,0.125 -2.8125,3.59375 A 19.901562,19.901562 0 0 0 215,392.03125 L 201.15625,410 a 19.901562,19.901562 0 0 0 -1.09375,1.59375 19.901562,19.901562 0 0 0 -0.0625,0.0625 l -55.625,72.4375 -44.46875,0 A 19.901562,19.901562 0 0 0 80,504 l 0,25 a 19.901562,19.901562 0 0 0 19.90625,19.90625 l 128.5625,0 c 2.20918,3.69209 4.6969,7.15927 7.53125,10.28125 0.77981,0.85894 1.49791,1.59127 2.125,2.21875 11.48083,11.48828 27.50049,18.78125 45.03125,18.78125 13.1648,0 25.5172,-4.1232 35.65625,-11 3.37601,-2.28977 6.55535,-4.89447 9.4375,-7.78125 0.61349,-0.61447 1.33299,-1.34557 2.125,-2.21875 0.71672,-0.79018 1.35597,-1.56945 1.96875,-2.3125 0.54092,-0.65591 1.19416,-1.45411 1.90625,-2.40625 1.3194,-1.7642 2.45454,-3.65727 3.59375,-5.5625 l 117.4375,0 A 19.901562,19.901562 0 0 0 475.1875,529 l 0,-25 a 19.901562,19.901562 0 0 0 -19.90625,-19.90625 l -53.15625,0 L 393.15625,441.5 393.125,441.40625 388.9375,421 394.875,325.90625 a 19.901562,19.901562 0 0 0 0,-0.125 l 5.96875,-106.3125 a 19.901562,19.901562 0 0 0 0,-1.125 l 0,-0.0312 a 19.901562,19.901562 0 0 0 -0.0625,-1.65625 19.901562,19.901562 0 0 0 -0.0312,-0.34375 19.901562,19.901562 0 0 0 -0.0312,-0.25 19.901562,19.901562 0 0 0 -0.28125,-1.6875 19.901562,19.901562 0 0 0 0,-0.0312 19.901562,19.901562 0 0 0 0,-0.0312 19.901562,19.901562 0 0 0 -0.5,-1.875 19.901562,19.901562 0 0 0 -0.6875,-1.875 19.901562,19.901562 0 0 0 -0.8125,-1.71875 19.901562,19.901562 0 0 0 -0.0312,-0.0625 19.901562,19.901562 0 0 0 -0.0312,-0.0625 19.901562,19.901562 0 0 0 -0.6875,-1.15625 19.901562,19.901562 0 0 0 -0.71875,-1.03125 19.901562,19.901562 0 0 0 -0.0937,-0.125 19.901562,19.901562 0 0 0 -0.1875,-0.21875 19.901562,19.901562 0 0 0 -1,-1.1875 19.901562,19.901562 0 0 0 -0.0937,-0.125 19.901562,19.901562 0 0 0 -0.0937,-0.125 19.901562,19.901562 0 0 0 -1.1875,-1.15625 19.901562,19.901562 0 0 0 -0.125,-0.125 19.901562,19.901562 0 0 0 -0.21875,-0.15625 19.901562,19.901562 0 0 0 -1.21875,-1 19.901562,19.901562 0 0 0 -0.125,-0.0937 19.901562,19.901562 0 0 0 -0.15625,-0.0937 19.901562,19.901562 0 0 0 -1.5,-0.96875 19.901562,19.901562 0 0 0 -1.65625,-0.90625 19.901562,19.901562 0 0 0 -0.0937,-0.0312 19.901562,19.901562 0 0 0 -0.125,-0.0312 19.901562,19.901562 0 0 0 -1.75,-0.6875 19.901562,19.901562 0 0 0 -2,-0.59375 l -2.5625,-0.59375 -0.1875,-0.0312 -62.9375,-14.90625 a 19.901562,19.901562 0 0 0 -3.9375,-0.5 z m 26.59375,348.96875 c -0.003,-0.0144 0.51558,0.84666 0.65625,2.5625 l -0.0937,-0.0312 c -0.15044,-1.5318 -0.56005,-2.51746 -0.5625,-2.53125 z" />
  <path
     style="fill:#000000;fill-opacity:1;stroke:none"
     d="m 230.82858,404.203 -87.79094,114.46367 96.34088,0.43716 c 1.38862,22.8971 20.5922,41.24741 43.81894,41.24741 23.12276,0 42.25233,-18.18512 43.79323,-40.93883 l 62.29187,0.28287 -17.87127,-84.88394 z"
     id="path3822"
     inkscape:connector-curvature="0"
     sodipodi:nodetypes="cccscccc" />
  <path
     inkscape:connector-curvature="0"
     style="fill:#ffd400;fill-opacity:1;stroke:none"
     d="m 315.07573,202.8156 -42.55985,106.05562 -33.46747,84.72262 -8.26029,10.64469 140.60909,30.54121 -2.48229,-11.9646 6.11315,-98.0942 5.96196,-106.30491"
     id="path3822-6-4"
     sodipodi:nodetypes="cccccccc" />
  <path
     inkscape:connector-curvature="0"
     style="fill:#000000;fill-opacity:1;stroke:none"
     d="m 254.52011,354.42492 -15.52214,39.18097 -22.05884,28.62171 159.03299,34.48261 -7.05627,-34.40087 2.83753,-44.85167"
     id="path3822-6"
     sodipodi:nodetypes="cccccc" />
  <path
     style="fill:none;stroke:#000000;stroke-width:25;stroke-linecap:butt;stroke-linejoin:miter;stroke-opacity:1;stroke-miterlimit:4;stroke-dasharray:none"
     d="m 99.923776,516.57012 355.381084,0"
     id="path3759"
     inkscape:connector-curvature="0" />
  <path
     sodipodi:type="arc"
     style="color:#000000;fill:#fefefe;fill-opacity:1;stroke:#000000;stroke-width:25;stroke-linecap:round;stroke-linejoin:round;stroke-miterlimit:10;stroke-opacity:1;stroke-dasharray:none;stroke-dashoffset:0;marker:none;visibility:visible;display:inline;overflow:visible;enable-background:accumulate"
     id="path3759-1"
     sodipodi:cx="210.27438"
     sodipodi:cy="76.036606"
     sodipodi:rx="40.838413"
     sodipodi:ry="40.838413"
     d="m 251.1128,76.036606 a 40.838413,40.838413 0 1 1 -81.67683,0 40.838413,40.838413 0 1 1 81.67683,0 z"
     transform="matrix(0.82289092,0,0,0.82289092,110.16458,453.8318)" />
  <path
     style="opacity:0.42608696;color:#000000;fill:#000000;fill-opacity:1;fill-rule:nonzero;stroke:#a35151;stroke-width:0;stroke-linecap:round;stroke-linejoin:miter;stroke-miterlimit:4;stroke-opacity:1;stroke-dashoffset:0;marker:none;visibility:visible;display:inline;overflow:visible;enable-background:accumulate"
     d="m 366.42537,215.05447 14.52888,3.32959 -12.06894,204.43048 17.30535,81.92852 -51.97636,-0.0558 -7.59779,-92.03467 z"
     id="rect3050"
     inkscape:connector-curvature="0"
     sodipodi:nodetypes="ccccccc" />
</svg>

<svg width="580" height="580" viewBox="0 0 580 580" fill="none" xmlns="http://www.w3.org/2000/svg">
<g clip-path="url(#clip0)">
<path opacity="0.426087" d="M315.719 182.875C311.637 182.74 307.612 183.864 304.191 186.094C300.769 188.325 298.117 191.554 296.594 195.344L254.031 301.406C254.021 301.438 254.01 301.469 254 301.5L236 347.031V347.063L221.5 383.656L217.969 388.219L217.875 388.344L215.063 391.938C215.042 391.969 215.021 392 215 392.031L201.156 410C200.766 410.513 200.401 411.045 200.062 411.594C200.042 411.615 200.021 411.636 200 411.656L144.375 484.094H99.9062C97.292 484.093 94.7031 484.608 92.2877 485.608C89.8723 486.608 87.6776 488.074 85.829 489.923C83.9804 491.772 82.5142 493.966 81.514 496.382C80.5139 498.797 79.9994 501.386 80 504V529C79.9994 531.614 80.5139 534.203 81.514 536.619C82.5142 539.034 83.9804 541.229 85.829 543.077C87.6776 544.926 89.8723 546.392 92.2877 547.392C94.7031 548.393 97.292 548.907 99.9062 548.906H228.469C230.678 552.599 233.166 556.066 236 559.188C236.78 560.047 237.498 560.779 238.125 561.406C249.606 572.895 265.625 580.188 283.156 580.188C296.321 580.188 308.673 576.064 318.812 569.188C322.189 566.898 325.368 564.293 328.25 561.406C328.863 560.792 329.583 560.061 330.375 559.188C331.092 558.398 331.731 557.618 332.344 556.875C332.885 556.219 333.538 555.421 334.25 554.469C335.569 552.705 336.705 550.812 337.844 548.906H455.281C457.896 548.907 460.484 548.393 462.9 547.392C465.315 546.392 467.51 544.926 469.358 543.077C471.207 541.229 472.673 539.034 473.673 536.619C474.674 534.203 475.188 531.614 475.188 529V504C475.188 501.386 474.674 498.797 473.673 496.382C472.673 493.966 471.207 491.772 469.358 489.923C467.51 488.074 465.315 486.608 462.9 485.608C460.484 484.608 457.896 484.093 455.281 484.094H402.125L393.156 441.5L393.125 441.406L388.938 421L394.875 325.906C394.875 325.865 394.875 325.823 394.875 325.781L400.844 219.469C400.854 219.094 400.854 218.719 400.844 218.344V218.313C400.846 217.76 400.825 217.207 400.781 216.656C400.772 216.542 400.761 216.427 400.75 216.313C400.74 216.229 400.73 216.146 400.719 216.063C400.649 215.496 400.555 214.933 400.438 214.375C400.438 214.365 400.438 214.354 400.438 214.344C400.438 214.334 400.438 214.323 400.438 214.313C400.302 213.68 400.135 213.054 399.938 212.438C399.74 211.802 399.51 211.176 399.25 210.563C399.007 209.977 398.736 209.404 398.438 208.844C398.427 208.823 398.417 208.802 398.406 208.782C398.396 208.761 398.386 208.74 398.375 208.719C398.159 208.326 397.93 207.94 397.688 207.563C397.459 207.212 397.219 206.868 396.969 206.532C396.938 206.49 396.907 206.448 396.875 206.407C396.813 206.333 396.751 206.26 396.688 206.188C396.37 205.779 396.036 205.383 395.688 205C395.657 204.959 395.625 204.917 395.594 204.875C395.563 204.834 395.532 204.792 395.5 204.75C395.121 204.349 394.725 203.963 394.313 203.594C394.271 203.552 394.23 203.511 394.188 203.469C394.115 203.417 394.042 203.364 393.969 203.313C393.576 202.964 393.17 202.63 392.75 202.313C392.709 202.281 392.667 202.25 392.625 202.219C392.573 202.188 392.521 202.156 392.469 202.125C391.984 201.78 391.483 201.457 390.969 201.157C390.432 200.829 389.879 200.526 389.313 200.25C389.282 200.24 389.25 200.23 389.219 200.219C389.178 200.209 389.136 200.198 389.094 200.188C388.522 199.931 387.938 199.702 387.344 199.501C386.688 199.268 386.021 199.07 385.344 198.907L382.782 198.313L382.594 198.282L319.657 183.376C318.364 183.078 317.045 182.911 315.719 182.876L315.719 182.875ZM342.312 531.844C342.309 531.83 342.828 532.691 342.969 534.406L342.875 534.375C342.725 532.843 342.315 531.858 342.313 531.844L342.312 531.844Z" fill="#8D8D8D"/>
<path d="M230.829 404.203L143.038 518.667L239.378 519.104C240.767 542.001 259.971 560.351 283.197 560.351C306.32 560.351 325.45 542.166 326.991 519.413L389.283 519.695L371.411 434.811L230.829 404.203Z" fill="black"/>
<path d="M315.076 202.815L272.516 308.871L239.048 393.594L230.788 404.238L371.397 434.78L368.915 422.815L375.028 324.721L380.99 218.416" fill="#FFD400"/>
<path d="M254.52 354.425L238.998 393.606L216.939 422.227L375.972 456.71L368.916 422.309L371.753 377.458" fill="black"/>
<path d="M99.9238 516.57H455.305" stroke="black" stroke-width="25"/>
<path d="M316.803 516.401C316.803 525.314 313.262 533.862 306.96 540.164C300.658 546.466 292.11 550.007 283.197 550.007C274.285 550.007 265.737 546.466 259.435 540.164C253.132 533.862 249.592 525.314 249.592 516.401C249.592 507.489 253.132 498.941 259.435 492.639C265.737 486.336 274.285 482.796 283.197 482.796C292.11 482.796 300.658 486.336 306.96 492.639C313.262 498.941 316.803 507.489 316.803 516.401V516.401Z" fill="#FEFEFE" stroke="black" stroke-width="20.5723" stroke-miterlimit="10" stroke-linecap="round" stroke-linejoin="round"/>
<path opacity="0.426087" d="M366.425 215.055L380.954 218.384L368.885 422.815L386.191 504.743L334.214 504.687L326.616 412.653L366.425 215.055Z" fill="black"/>
</g>
<defs>
<clipPath id="clip0">
<path d="M0 0H580V580H0V0Z" fill="white"/>
</clipPath>
</defs>
</svg>
